X: 12967
T: Fiddler, The
R: strathspey
M: 4/4
K: Amixolydian
|:a/|e<c c>B B<A A>a|e<c c<e f2 f<a|
e<c c>B B<A A>e|f/g/a e>a c<B B3/2:|
a/|e<c c<e f2 f<a|e<c c<a e<c c<a|
e<c c<e f2 f>e|f/g/a e>a c<B B3/2 a/|
e<c c<e f2 f<a|e<c c<a e<c c>e|
f/g/a e>a d>a c>e|f/g/a e>a c<B B3/2||

